X: 1
T: The Duke of Gordon
R: march, air
M: 2/4
L: 1/8
F: http://sniff.numachi.com/~rickheit/dtrad/abc/DUKEGORD.abc 2008-05-06 22:37:13 UT
K: G
D | G2 GA | G2 DD | G2 GA | G2 G2 | A2 BA | d2 cB | AG D2 | D3 |]
d | BA Bc | d2 DD | DD EF | G2 DD | G2 GG | AG FE | D2 G2 | G3 |]
